public/img/SuperCode_Logo.svg

<svg fill="none" height="861" viewBox="0 0 861 861" width="861" xmlns="http://www.w3.org/2000/svg"><path d="m443 291c18.333 0 34.833 2.667 49.5 8s28.5 13.5 41.5 24.5l-34 47c-16.667-12.667-33.5-19-50.5-19-17.667 0-31 6.5-40 19.5s-13.5 34-13.5 63c0 28 4.5 47.833 13.5 59.5s22 17.5 39 17.5c9 0 17.167-1.333 24.5-4 7.333-3 16.167-7.667 26.5-14l34.5 49c-26.333 21-56.167 31.5-89.5 31.5-27 0-50.333-5.667-70-17-19.667-11.667-34.833-27.833-45.5-48.5-10.667-21-16-45.5-16-73.5s5.333-52.833 16-74.5 25.833-38.5 45.5-50.5c19.667-12.333 42.5-18.5 68.5-18.5z" fill="#fff"/></svg>

<svg width="861" height="861" viewBox="0 0 861 861" fill="none" xmlns="http://www.w3.org/2000/svg">
<path d="M443 291C461.333 291 477.833 293.667 492.5 299C507.167 304.333 521 312.5 534 323.5L500 370.5C483.333 357.833 466.5 351.5 449.5 351.5C431.833 351.5 418.5 358 409.5 371C400.5 384 396 405 396 434C396 462 400.5 481.833 409.5 493.5C418.5 505.167 431.5 511 448.5 511C457.5 511 465.667 509.667 473 507C480.333 504 489.167 499.333 499.5 493L534 542C507.667 563 477.833 573.5 444.5 573.5C417.5 573.5 394.167 567.833 374.5 556.5C354.833 544.833 339.667 528.667 329 508C318.333 487 313 462.5 313 434.5C313 406.5 318.333 381.667 329 360C339.667 338.333 354.833 321.5 374.5 309.5C394.167 297.167 417 291 443 291Z" fill="white"/>
</svg>
